img/vk-icon.svg

<svg width="31" height="31" viewBox="0 0 31 31" fill="none" xmlns="http://www.w3.org/2000/svg">
<path fill-rule="evenodd" clip-rule="evenodd" d="M15.2783 0.953857C23.5626 0.953857 30.2783 7.66959 30.2783 15.9539C30.2783 24.2381 23.5626 30.9539 15.2783 30.9539C6.99405 30.9539 0.27832 24.2381 0.27832 15.9539C0.27832 7.66959 6.99405 0.953857 15.2783 0.953857ZM16.3272 15.9822V13.8282C16.3246 13.1446 16.3272 12.461 16.3323 11.7783C16.3326 11.6466 16.3249 11.5149 16.3092 11.384C16.2693 11.0622 16.1078 10.9079 15.7868 10.8745C15.7333 10.8698 15.6793 10.8698 15.6258 10.8698H15.6256H12.3586C12.2854 10.8687 12.2122 10.8746 12.1401 10.8873C11.7715 10.9589 11.6035 11.3245 11.7938 11.6493C11.8598 11.7577 11.9347 11.8604 12.0179 11.9562C12.4113 12.4225 12.5738 12.9728 12.5798 13.568C12.587 14.4081 12.5843 15.2481 12.5816 16.0881C12.581 16.2981 12.5803 16.5081 12.5798 16.718C12.5793 16.9139 12.5768 17.1098 12.5236 17.2996C12.4649 17.5113 12.3132 17.5975 12.0989 17.5516C11.9558 17.5225 11.8392 17.4406 11.7295 17.351C11.3703 17.057 11.0883 16.6945 10.8269 16.3165C9.87506 14.9386 9.17177 13.4356 8.60649 11.8645C8.59503 11.8331 8.58378 11.8016 8.57253 11.7702C8.50975 11.5947 8.44712 11.4196 8.34935 11.2593C8.29057 11.1545 8.20697 11.0656 8.10588 11.0005C8.00479 10.9354 7.88929 10.8961 7.76949 10.886C7.75541 10.8845 7.74109 10.8829 7.7266 10.8812C7.67844 10.8756 7.62849 10.8698 7.58006 10.8698C7.44695 10.8694 7.31383 10.8689 7.1807 10.8684C6.58127 10.8663 5.98167 10.8641 5.38235 10.8698C4.78063 10.8753 4.56421 11.1406 4.66192 11.7222C4.74729 12.1928 4.87421 12.6549 5.0412 13.103C5.6292 14.7526 6.45463 16.2826 7.41077 17.7445C7.97777 18.611 8.56406 19.4635 9.30121 20.2006C10.3761 21.2746 11.6065 22.094 13.0816 22.508C13.9323 22.7472 14.7985 22.8321 15.6745 22.6701C16.1643 22.5792 16.3302 22.3692 16.3302 21.8738V20.057C16.3306 19.9349 16.3311 19.8128 16.3379 19.691C16.3585 19.3255 16.5029 19.1913 16.8582 19.1845C17.2135 19.1776 17.5092 19.34 17.7912 19.5273C18.4049 19.9349 18.9372 20.4376 19.4408 20.9716C19.6545 21.1977 19.8654 21.4262 20.0764 21.6546C20.2728 21.8673 20.4692 22.08 20.6678 22.2908C20.9716 22.613 21.3415 22.766 21.7936 22.7545C22.2533 22.7423 22.7136 22.7448 23.1738 22.7473C23.3632 22.7483 23.5526 22.7493 23.7419 22.7493C23.8494 22.7488 23.9567 22.7417 24.0633 22.7279C24.4971 22.6722 24.7062 22.3799 24.6205 21.9513C24.5898 21.808 24.5402 21.6693 24.4731 21.539C24.3031 21.2091 24.1013 20.8966 23.8705 20.606C23.1731 19.7001 22.4079 18.8485 21.5815 18.0586C21.4131 17.9023 21.2638 17.7266 21.1366 17.5353C21.0055 17.3313 20.9943 17.1286 21.1126 16.9143C21.1929 16.769 21.2872 16.6331 21.3814 16.4973C21.4039 16.4649 21.4263 16.4326 21.4486 16.4C22.2715 15.1953 23.0858 13.9846 23.7629 12.6886C23.9498 12.329 24.1212 11.9622 24.2069 11.5623C24.2905 11.1753 24.1203 10.9349 23.7261 10.8869C23.6391 10.8756 23.5515 10.8695 23.4638 10.8685H21.3831C21.2658 10.8671 21.1488 10.8788 21.0342 10.9036C20.6793 10.9833 20.4861 11.2302 20.3485 11.5465C19.7883 12.8343 19.1271 14.0656 18.2978 15.2026C17.9926 15.6213 17.6682 16.0246 17.2641 16.355C17.1312 16.4643 16.9966 16.5668 16.8252 16.6122C16.6186 16.6679 16.4823 16.6045 16.3966 16.4108C16.3349 16.2753 16.3272 16.1292 16.3272 15.9822Z" fill="white"/>
</svg>

<svg width="31" height="31" viewBox="0 0 31 31" fill="none" xmlns="http://www.w3.org/2000/svg"><path fill-rule="evenodd" clip-rule="evenodd" d="M15.278.954c8.285 0 15 6.716 15 15 0 8.284-6.715 15-15 15-8.284 0-15-6.716-15-15 0-8.284 6.716-15 15-15zm1.05 15.028v-2.154c-.003-.683 0-1.367.004-2.05a3.25 3.25 0 00-.023-.394c-.04-.322-.201-.476-.522-.51-.054-.004-.108-.004-.161-.004h-3.267a1.16 1.16 0 00-.219.017c-.369.072-.537.438-.346.762.066.109.14.211.224.307.393.466.556 1.017.562 1.612.007.84.004 1.68.002 2.52l-.002.63c0 .196-.003.392-.056.582-.06.211-.21.297-.425.252a.865.865 0 01-.37-.201c-.359-.294-.64-.656-.902-1.034-.952-1.378-1.655-2.881-2.22-4.453-.012-.03-.023-.062-.034-.094a2.723 2.723 0 00-.224-.51.736.736 0 00-.622-.379 1.286 1.286 0 00-.147-.011l-.4-.002c-.599-.002-1.198-.004-1.798.002-.601.005-.818.27-.72.852.085.47.212.933.38 1.381.587 1.65 1.413 3.18 2.369 4.641.567.867 1.153 1.72 1.89 2.457 1.075 1.074 2.306 1.893 3.78 2.307.851.24 1.718.324 2.594.162.49-.09.655-.3.655-.796v-1.817c0-.122.001-.244.008-.366.02-.365.165-.5.52-.506.355-.007.651.155.933.342.614.408 1.146.91 1.65 1.445.213.226.424.454.635.683.197.212.393.425.592.636.304.322.674.475 1.126.463.46-.012.92-.01 1.38-.007l.568.002c.107 0 .215-.007.321-.021.434-.056.643-.348.558-.777a1.66 1.66 0 00-.148-.412 5.694 5.694 0 00-.602-.933 22.568 22.568 0 00-2.29-2.547 2.92 2.92 0 01-.444-.524.563.563 0 01-.024-.62c.08-.146.174-.282.268-.418l.068-.097c.822-1.205 1.637-2.415 2.314-3.711.187-.36.358-.727.444-1.127.084-.387-.087-.627-.48-.675a2.234 2.234 0 00-.263-.019h-2.08a1.561 1.561 0 00-.35.036c-.355.08-.548.326-.685.643-.56 1.287-1.222 2.519-2.051 3.656-.305.418-.63.822-1.034 1.152-.133.11-.267.212-.439.257-.206.056-.343-.007-.428-.201a1.013 1.013 0 01-.07-.429z" fill="#fff"/></svg>
